X:2494
T: Hasapiko Grigoro
O:england
C: Greece
M: 4/4
L: 1/8
K: Am
|: "Am"EA AA | "E"^GA B2 | EA ^GF | "Am"E4    \
|  "Am"EA AA | "E"^GA B2 | ed cB  | "Am"AE Az :|
|| "A7"aa aa       | "Dm"a/g/f/e/ d2 | "G7"gg fe              | "C"e4     \
|  "Dm"f/e/d/e/ fa | "Am"e/d/c/d/ ea | "E7"^g/a/g/f/ e/d/c/d/ | "Am"e4    |
|  "Dm"f/e/d/e/ fa | "Am"e/d/c/d/ ea | "E7"B/c/d/f/ e/d/c/B/  | "Am"AE Az ||
|| "A"^cc _BA | ee d^c |"Gm"_B/^c/d/e/ d/c/B/A/  | "A"^c4   \
|  "A"^cc _BA | ee d^c |"Gm"G/A/_B/^c/ B/A/G/B/  | "A"A4    |
|| "A"ee d^c  | gg fe  | "Gm"d/e/f/g/ f/e/d/^c/  | "A"e4    \
|  "A"ee d^c  | gg fe  | "Gm"_B/^c/d/f/ e/d/c/B/ | "A"AE Az |]


